X: 20070
T: Jimmy McBride's
R: reel
M: 4/4
K: Cmajor
EF|:G2GA GEDE|CE~E2 GAcd|ec~c2 AGAc|d2ec dcAG|
EG~G2 cGAG|EDCD EGcd|ec~c2 AGcA|1 GEDG ECEF:|2 GEDG ECef||
g2 gf ec~c2|afgf ec ~c2|Add^c d2 (3efg|afge fedf|
[1 eg ~g2 aege|cdec d2cd|ec ~c2 AGcA|GEDG EC ef:|
[2 ec ~c2 GcEc|AF ~F2 CFA,F|GABc defg|ecdg edcA||

